neru-light-classic/22x22/actions/dino-tick-symbolic.svg

<?xml version="1.0" encoding="UTF-8" standalone="no"?>
<svg
   xmlns:dc="http://purl.org/dc/elements/1.1/"
   xmlns:cc="http://creativecommons.org/ns#"
   xmlns:rdf="http://www.w3.org/1999/02/22-rdf-syntax-ns#"
   xmlns:svg="http://www.w3.org/2000/svg"
   xmlns="http://www.w3.org/2000/svg"
   xmlns:sodipodi="http://sodipodi.sourceforge.net/DTD/sodipodi-0.dtd"
   xmlns:inkscape="http://www.inkscape.org/namespaces/inkscape"
   width="22"
   height="22"
   viewBox="0 0 22 22"
   version="1.1"
   id="svg7"
   sodipodi:docname="dino-tick-symbolic.svg"
   inkscape:version="0.92.1 r">
  <metadata
     id="metadata11">
    <rdf:RDF>
      <cc:Work
         rdf:about="">
        <dc:format>image/svg+xml</dc:format>
        <dc:type
           rdf:resource="http://purl.org/dc/dcmitype/StillImage" />
        <dc:title></dc:title>
      </cc:Work>
    </rdf:RDF>
  </metadata>
  <sodipodi:namedview
     pagecolor="#ffffff"
     bordercolor="#666666"
     borderopacity="1"
     objecttolerance="10"
     gridtolerance="10"
     guidetolerance="10"
     inkscape:pageopacity="0"
     inkscape:pageshadow="2"
     inkscape:window-width="769"
     inkscape:window-height="480"
     id="namedview9"
     showgrid="false"
     inkscape:zoom="10.727273"
     inkscape:cx="11"
     inkscape:cy="11"
     inkscape:window-x="0"
     inkscape:window-y="0"
     inkscape:window-maximized="0"
     inkscape:current-layer="svg7" />
  <defs
     id="defs3">
    <style
       type="text/css"
       id="current-color-scheme">
   .ColorScheme-Text { color:#1e333d; } .ColorScheme-Highlight { color:#3fb7ff; }
  </style>
  </defs>
  <path
     style="fill:currentColor;opacity:1"
     class="ColorScheme-Text"
     transform="translate(3 3)"
     d="M 13.138672 3.0292969 C 13.042461 3.0112201 12.942552 3.010175 12.839844 3.03125 C 12.620964 3.07855 12.419254 3.20178 12.277344 3.375 L 5.9960938 10.5625 L 3.7460938 8.3125 C 3.3697638 7.93612 2.6849937 7.93615 2.3085938 8.3125 C 1.9322437 8.68886 1.9322138 9.3736 2.3085938 9.75 L 5.3085938 12.75 L 6.0898438 13.5 L 6.7773438 12.6875 L 13.777344 4.6875 C 14.273836 4.1469863 13.812147 3.1558343 13.138672 3.0292969 z"
     id="path5" />
</svg>

<svg xmlns="http://www.w3.org/2000/svg" width="22" height="22" version="1.1" id="svg7"><defs id="defs3"><style type="text/css" id="current-color-scheme"></style></defs><path transform="translate(3 3)" d="M13.139 3.03a.768.768 0 0 0-.3.001 1.01 1.01 0 0 0-.562.344l-6.28 7.188-2.25-2.25c-.377-.377-1.062-.377-1.438 0-.377.376-.377 1.06 0 1.437l3 3 .78.75.688-.813 7-8c.497-.54.035-1.531-.638-1.658z" id="path5" fill="currentColor" opacity="1" color="#1e333d"/></svg>
